X: 5245
T: Broken Pledge, The
R: reel
M: 4/4
K: Ddorian
|:dcAG AD3|cAGE ED D2|DEFG ADdB|cAGc AD (3gfe|
dcAG ADdB|cAAG EFFE|DEFG ADdB|cAGE ED D2:|
|:dcAG Adde|f3d ecAB|cAGE GAcd|ed (3Bcd ecAc|
dcAG Adde|f3d ecAG|FEFG Addc|AcGE ED D2:|

